icon/pk/frog.svg

<svg viewBox="0 0 48 48" fill="none" xmlns="http://www.w3.org/2000/svg" height="1em" width="1em">
  <path d="M19.1015 10.8942C19.5261 11.6689 19.7431 12.5226 19.772 13.4061C20.9787 13.2453 22.2252 13.1611 23.5003 13.1611C25.1295 13.1611 26.7122 13.2986 28.2249 13.5577C28.2328 12.6203 28.4497 11.7131 28.8985 10.8942C30.6575 7.68502 35.3132 7.04762 39.2973 9.47057C43.2814 11.8935 45.0852 16.4593 43.3262 19.6685C42.8986 20.4486 42.2999 21.0768 41.5812 21.5459C42.4961 23.1006 43 24.8001 43 26.5806C43 33.9919 34.2697 40 23.5003 40C12.7308 40 4.00052 33.9919 4.00052 26.5806C4.00052 24.5994 4.62433 22.7186 5.74416 21.026C5.32121 20.6426 4.95932 20.1894 4.67378 19.6685C2.91478 16.4593 4.71859 11.8935 8.7027 9.47057C12.6868 7.04762 17.3425 7.68502 19.1015 10.8942Z" fill="#2F88FF" stroke="black" stroke-width="4" stroke-linejoin="round"/>
  <circle cx="12" cy="17" r="2" fill="white"/>
  <circle cx="20.1562" cy="28.5762" r="2" fill="white"/>
  <circle cx="28.1562" cy="28.5762" r="2" fill="white"/>
  <circle cx="36" cy="17" r="2" fill="white"/>
</svg>

<svg width="48" height="48" fill="none" xmlns="http://www.w3.org/2000/svg"><path d="M19.102 10.894c.424.775.641 1.629.67 2.512a28.24 28.24 0 0 1 3.728-.245c1.63 0 3.212.138 4.725.397a5.597 5.597 0 0 1 .673-2.664c1.76-3.209 6.415-3.846 10.4-1.423 3.983 2.422 5.787 6.988 4.028 10.198a5.233 5.233 0 0 1-1.745 1.877C42.496 23.1 43 24.8 43 26.58 43 33.99 34.27 40 23.5 40S4 33.992 4 26.58c0-1.98.624-3.861 1.744-5.554a5.196 5.196 0 0 1-1.07-1.357c-1.76-3.21.045-7.776 4.029-10.198 3.984-2.423 8.64-1.786 10.399 1.423Z" fill="#2F88FF" stroke="#000" stroke-width="4" stroke-linejoin="round"/><circle cx="12" cy="17" r="2" fill="#fff"/><circle cx="20.156" cy="28.576" r="2" fill="#fff"/><circle cx="28.156" cy="28.576" r="2" fill="#fff"/><circle cx="36" cy="17" r="2" fill="#fff"/></svg>
